X: 15944
T: Granny In The Corner
R: reel
M: 4/4
K: Cmajor
CA,|G,A,CD EC C/C/C|DCA,B, C3 E|F2 FE FEDC|G,A,CA, A,2
CA,|G,A,CD EC C/C/C|DCA,B, CB,CE|F3 E FEDC|G,2 G,/G,/G, G,2:|
EF|G3 E F3 D|EGEC D2 EF|GEFD ECDC|G,A,CA, A,2
EF|GAGE F2 FD|EGEC D2 EF|GEFD ECDC|G,2 G,/G,/G, G,2:|

